img/elem/ElemCylinderLensT24.svg

<?xml version="1.0" encoding="UTF-8" standalone="no"?>
<svg
   xmlns:dc="http://purl.org/dc/elements/1.1/"
   xmlns:cc="http://creativecommons.org/ns#"
   xmlns:rdf="http://www.w3.org/1999/02/22-rdf-syntax-ns#"
   xmlns:svg="http://www.w3.org/2000/svg"
   xmlns="http://www.w3.org/2000/svg"
   xmlns:xlink="http://www.w3.org/1999/xlink"
   version="1.0"
   id="svg2160"
   height="24"
   width="24">
  <defs
     id="defs2162">
    <linearGradient
       id="linearGradient3261">
      <stop
         id="stop3263"
         offset="0"
         style="stop-color:#dbf6ff;stop-opacity:1;" />
      <stop
         id="stop3265"
         offset="1"
         style="stop-color:#7ddcfd;stop-opacity:1;" />
    </linearGradient>
    <linearGradient
       gradientTransform="translate(-1.212836,-9.7178e-3)"
       gradientUnits="userSpaceOnUse"
       y2="23"
       x2="9.9385099"
       y1="1.0479119"
       x1="10.088602"
       id="linearGradient3634"
       xlink:href="#linearGradient3261" />
    <marker
       style="overflow:visible"
       id="TriangleOutM"
       refX="0"
       refY="0"
       orient="auto">
      <path
         transform="scale(0.4,0.4)"
         style="fill-rule:evenodd;stroke:#000000;stroke-width:1pt;marker-start:none"
         d="M 5.77,0 L -2.88,5 L -2.88,-5 L 5.77,0 z "
         id="path7131" />
    </marker>
    <marker
       style="overflow:visible"
       id="TriangleOutS"
       refX="0"
       refY="0"
       orient="auto">
      <path
         transform="scale(0.2,0.2)"
         style="fill-rule:evenodd;stroke:#000000;stroke-width:1pt;marker-start:none"
         d="M 5.77,0 L -2.88,5 L -2.88,-5 L 5.77,0 z "
         id="path7134" />
    </marker>
    <marker
       style="overflow:visible"
       id="TriangleInS"
       refX="0"
       refY="0"
       orient="auto">
      <path
         transform="scale(-0.2,-0.2)"
         style="fill-rule:evenodd;stroke:#000000;stroke-width:1pt;marker-start:none"
         d="M 5.77,0 L -2.88,5 L -2.88,-5 L 5.77,0 z "
         id="path7125" />
    </marker>
    <marker
       style="overflow:visible"
       id="Arrow2Mend"
       refX="0"
       refY="0"
       orient="auto">
      <path
         transform="scale(-0.6,-0.6)"
         d="M 8.7185878,4.0337352 L -2.2072895,0.016013256 L 8.7185884,-4.0017078 C 6.97309,-1.6296469 6.9831476,1.6157441 8.7185878,4.0337352 z "
         style="font-size:12px;fill-rule:evenodd;stroke-width:0.625;stroke-linejoin:round"
         id="path7057" />
    </marker>
    <marker
       style="overflow:visible"
       id="Arrow1Mend"
       refX="0"
       refY="0"
       orient="auto">
      <path
         transform="matrix(-0.4,0,0,-0.4,-4,0)"
         style="fill-rule:evenodd;stroke:#000000;stroke-width:1pt;marker-start:none"
         d="M 0,0 L 5,-5 L -12.5,0 L 5,5 L 0,0 z "
         id="path7039" />
    </marker>
  </defs>
  <metadata
     id="metadata2165">
    <rdf:RDF>
      <cc:Work
         rdf:about="">
        <dc:format>image/svg+xml</dc:format>
        <dc:type
           rdf:resource="http://purl.org/dc/dcmitype/StillImage" />
        <dc:title></dc:title>
      </cc:Work>
    </rdf:RDF>
  </metadata>
  <g
     style="display:inline"
     id="layer1">
    <path
       id="path6056"
       d="M 1.560891,22.471039 L 22.493565,1.5834158"
       style="fill:none;fill-rule:evenodd;stroke:#ff0000;stroke-width:3;stroke-linecap:round;stroke-linejoin:miter;marker-end:none;stroke-miterlimit:4;stroke-dasharray:none;stroke-opacity:1" />
    <path
       id="path8202"
       d="M 17.500493,1.5225248 L 22.477475,1.5225248 L 22.477475,6.5352268"
       style="fill:none;fill-rule:evenodd;stroke:#ff0000;stroke-width:3;stroke-linecap:round;stroke-linejoin:round;stroke-miterlimit:4;stroke-dasharray:none;stroke-opacity:1" />
    <path
       id="path8631"
       d="M 7.759544,0.7642311 C 7.759544,0.7642311 10.013768,0.7642311 10.013768,0.7642311 C 10.013768,0.7642311 13.079874,6.187473 13.108929,11.945233 C 13.137985,17.702994 10.013768,23.25 10.013768,23.25 C 10.013768,23.25 7.759544,23.25 7.759544,23.25 C 7.683197,15.719987 7.663106,8.4393739 7.759544,0.7642311 z"
       style="fill:url(#linearGradient3634);fill-opacity:1;fill-rule:evenodd;stroke:#00b4ff;stroke-width:1.5;stroke-miterlimit:4;stroke-dashoffset:0;stroke-opacity:1" />
    <path
       id="path3636-3"
       d="M 5.017501,19.060038 16.11805,7.9594891"
       style="fill:none;fill-rule:evenodd;stroke:#ff0000;stroke-width:3;stroke-linecap:butt;stroke-linejoin:miter;stroke-miterlimit:4;stroke-dasharray:none;stroke-opacity:0.31666667" />
    <g
       id="text28845"
       style="display:inline;font-style:normal;font-variant:normal;font-weight:bold;font-stretch:normal;font-size:13.85164547px;line-height:125%;font-family:FreeSerif;-inkscape-font-specification:'FreeSerif, Bold';text-align:start;writing-mode:lr-tb;text-anchor:start;fill:#000000;fill-opacity:1;stroke:none;stroke-width:1px;stroke-linecap:butt;stroke-linejoin:miter;stroke-opacity:1"
       transform="scale(0.97110104,1.029759)">
      <path
         id="path4210"
         style="font-style:normal;font-variant:normal;font-weight:bold;font-stretch:normal;font-size:13.85164547px;line-height:125%;font-family:FreeSerif;-inkscape-font-specification:'FreeSerif, Bold';text-align:start;writing-mode:lr-tb;text-anchor:start"
         d="m 18.66805,20.475179 0,-7.299817 q -1.288203,0.04156 -1.897676,0.581769 -0.595621,0.526362 -0.775692,1.759159 l -0.401698,0 0.04156,-2.784181 8.310987,0 0.0277,2.784181 -0.401698,0 q -0.180071,-1.232797 -0.789544,-1.759159 -0.59562,-0.540214 -1.869972,-0.581769 l 0,7.299817 q 0,0.789544 0.221626,0.997318 0.235478,0.207775 1.135835,0.277033 l 0,0.346291 -4.945037,0 0,-0.346291 q 0.886505,-0.06926 1.108132,-0.277033 0.235478,-0.221626 0.235478,-0.997318 z" />
    </g>
  </g>
</svg>

<svg height="24" width="24" xmlns="http://www.w3.org/2000/svg" xmlns:xlink="http://www.w3.org/1999/xlink">
  <linearGradient id="a" gradientUnits="userSpaceOnUse" x1="8.875766" x2="8.725674" y1="1.038194" y2="22.990282">
    <stop offset="0" stop-color="#dbf6ff"/>
    <stop offset="1" stop-color="#7ddcfd"/>
  </linearGradient>
  <g>
    <path d="m1.560891 22.471039 20.932674-20.8876232" fill="none" stroke="#f00" stroke-linecap="round" stroke-width="3"/>
    <path d="m17.500493 1.5225248h4.976982v5.012702" fill="none" stroke="#f00" stroke-linecap="round" stroke-linejoin="round" stroke-width="3"/>
    <path d="m7.759544.7642311h2.254224s3.066106 5.4232419 3.095161 11.1810019c.029056 5.757761-3.095161 11.304767-3.095161 11.304767h-2.254224c-.076347-7.530013-.096438-14.8106261 0-22.4857689z" fill="url(#a)" fill-rule="evenodd" stroke="#00b4ff" stroke-width="1.5"/>
    <path d="m5.017501 19.060038 11.100549-11.1005489" fill="none" stroke="#f00" stroke-opacity=".316667" stroke-width="3"/>
    <path d="m18.66805 20.475179v-7.299817q-1.288203.04156-1.897676.581769-.595621.526362-.775692 1.759159h-.401698l.04156-2.784181h8.310987l.0277 2.784181h-.401698q-.180071-1.232797-.789544-1.759159-.59562-.540214-1.869972-.581769v7.299817q0 .789544.221626.997318.235478.207775 1.135835.277033v.346291h-4.945037v-.346291q.886505-.06926 1.108132-.277033.235478-.221626.235478-.997318z" transform="scale(.97110104 1.029759)"/>
  </g>
</svg>
